X:0
T:The Barmaid
G:Reel
S:Glenallan Collection p19
M:C|
L:1/8
Q:1/2=96
K:AMix
% but with no f's
e|a2 e>c A<Ae>c|B>GG>B g>ed>B|a2 e>c A<Ae>c|B>GG>B e2A:|
a|c>AA>a c<Ae>c|B>GG>g B<Gd>B|c>AA>a c<Ae>c|B>GG>B e2A:|
